icons/line/cog.svg

<svg width="24" height="24" viewBox="0 0 24 24" fill="none" xmlns="http://www.w3.org/2000/svg">
<path fill-rule="evenodd" clip-rule="evenodd" d="M11 2C9.89543 2 9 2.89543 9 4V4.75733L8.29289 5.46444L9 4.75733L8.4645 4.22184C7.68345 3.44079 6.41713 3.44079 5.63608 4.22184L4.22186 5.63605C3.44081 6.4171 3.44082 7.68343 4.22186 8.46448L4.75739 9H4C2.89543 9 2 9.89543 2 11V13C2 14.1046 2.89543 15 4 15H4.75739L4.22185 15.5355C3.4408 16.3166 3.4408 17.5829 4.22185 18.364L5.63606 19.7782C6.41711 20.5592 7.68344 20.5592 8.46449 19.7782L9 19.2427V20C9 21.1046 9.89543 22 11 22H13C14.1046 22 15 21.1046 15 20V19.2426L15.5356 19.7782C16.3166 20.5592 17.583 20.5592 18.364 19.7782L19.7782 18.364C20.5593 17.5829 20.5593 16.3166 19.7782 15.5355L19.2427 15H20C21.1046 15 22 14.1046 22 13V11C22 9.89543 21.1046 9 20 9H19.2427L19.7782 8.46447C20.5592 7.68342 20.5592 6.4171 19.7782 5.63605L18.364 4.22183C17.5829 3.44078 16.3166 3.44078 15.5356 4.22183L15 4.75739V4C15 2.89543 14.1046 2 13 2H11ZM11 4H13V4.75739C13 6.5392 15.1543 7.43153 16.4142 6.1716L16.9498 5.63605L18.364 7.05026L17.8285 7.58579C16.5685 8.84572 17.4609 11 19.2427 11H20V13H19.2427C17.4609 13 16.5685 15.1543 17.8285 16.4142L18.364 16.9498L16.9498 18.364L16.4142 17.8284C15.1543 16.5685 13 17.4608 13 19.2426V20H11V19.2427C11 17.4609 8.84572 16.5685 7.58579 17.8285L7.05027 18.364L5.63606 16.9498L6.1716 16.4142C7.43153 15.1543 6.53919 13 4.75739 13H4V11H4.75739C6.5392 11 7.43153 8.84572 6.1716 7.58579L5.63608 7.05026L7.05029 5.63605L7.58579 6.17154C8.84571 7.43147 11 6.53915 11 4.75733V4ZM10 12C10 10.8954 10.8954 10 12 10C13.1046 10 14 10.8954 14 12C14 13.1046 13.1046 14 12 14C10.8954 14 10 13.1046 10 12ZM12 8C9.79086 8 8 9.79086 8 12C8 14.2091 9.79086 16 12 16C14.2091 16 16 14.2091 16 12C16 9.79086 14.2091 8 12 8Z" fill="currentColor"/>
</svg>

<svg width="24" height="24" fill="none" xmlns="http://www.w3.org/2000/svg"><path fill-rule="evenodd" clip-rule="evenodd" d="M11 2a2 2 0 00-2 2v.757l-.707.707L9 4.757l-.536-.535a2 2 0 00-2.828 0L4.222 5.636a2 2 0 000 2.828L4.757 9H4a2 2 0 00-2 2v2a2 2 0 002 2h.757l-.535.536a2 2 0 000 2.828l1.414 1.414a2 2 0 002.828 0L9 19.243V20a2 2 0 002 2h2a2 2 0 002-2v-.757l.536.535a2 2 0 002.828 0l1.414-1.414a2 2 0 000-2.829L19.243 15H20a2 2 0 002-2v-2a2 2 0 00-2-2h-.757l.535-.536a2 2 0 000-2.828l-1.414-1.414a2 2 0 00-2.828 0L15 4.757V4a2 2 0 00-2-2h-2zm0 2h2v.757c0 1.782 2.154 2.675 3.414 1.415l.536-.536 1.414 1.414-.536.536C16.568 8.846 17.461 11 19.243 11H20v2h-.757c-1.782 0-2.674 2.154-1.415 3.414l.536.536-1.414 1.414-.536-.536c-1.26-1.26-3.414-.367-3.414 1.415V20h-2v-.757c0-1.782-2.154-2.674-3.414-1.415l-.536.536-1.414-1.414.536-.536C7.432 15.154 6.539 13 4.757 13H4v-2h.757c1.782 0 2.675-2.154 1.415-3.414l-.536-.536L7.05 5.636l.536.536C8.846 7.432 11 6.539 11 4.757V4zm-1 8a2 2 0 114 0 2 2 0 01-4 0zm2-4a4 4 0 100 8 4 4 0 000-8z" fill="currentColor"/></svg>
